public/common/euro.svg

<svg width="95" height="95" viewBox="0 0 95 95" fill="none" xmlns="http://www.w3.org/2000/svg">
<g id="Group 29">
<circle id="Ellipse 7" cx="47.5" cy="47.5" r="47.5" fill="#34D186"/>
<path id="&#226;&#130;&#172;" d="M49.7993 71.5752C45.214 71.5752 41.2384 70.187 37.8727 67.4105C34.5556 64.5852 32.3362 60.4448 31.2142 54.9892H26.6777V49.9476L30.6289 49.6554C30.5801 49.3144 30.5557 48.9978 30.5557 48.7055C30.5557 48.4132 30.5557 48.0966 30.5557 47.7556C30.5557 47.4147 30.5557 47.098 30.5557 46.8058C30.5557 46.4648 30.5801 46.1482 30.6289 45.8559H26.6777V40.8874L31.2142 40.5221C31.7996 37.7943 32.6776 35.3831 33.8483 33.2885C35.019 31.1452 36.4337 29.3429 38.0922 27.8816C39.7994 26.4203 41.7018 25.3243 43.7994 24.5936C45.8969 23.8142 48.1651 23.4246 50.6041 23.4246C52.7992 23.4246 54.9455 23.9117 57.043 24.8859C59.1406 25.8601 60.9698 27.2727 62.5307 29.1237L56.5308 34.896C55.604 33.9705 54.6284 33.2154 53.6041 32.6309C52.6285 32.0464 51.5065 31.7541 50.2383 31.7541C48.1408 31.7541 46.3847 32.5091 44.9701 34.0192C43.6043 35.5292 42.6287 37.6725 42.0433 40.449H57.7016V45.8559H41.3848V47.3903C41.3848 47.78 41.3848 48.1453 41.3848 48.4863C41.3848 48.8273 41.4092 49.1682 41.458 49.5092H54.7748V54.9892H42.1896C42.8726 57.6683 43.8969 59.7141 45.2628 61.1268C46.6774 62.5394 48.409 63.2457 50.4578 63.2457C51.8724 63.2457 53.0919 62.9047 54.1163 62.2228C55.1894 61.5408 56.2138 60.5666 57.1894 59.3001L63.1161 64.8531C61.36 67.0451 59.3601 68.7257 57.1162 69.8947C54.8723 71.0151 52.4334 71.5752 49.7993 71.5752Z" fill="#F9FDFF"/>
</g>
</svg>

<svg width="95" height="95" fill="none" xmlns="http://www.w3.org/2000/svg"><circle cx="47.5" cy="47.5" r="47.5" fill="#34D186"/><path d="M49.8 71.575c-4.586 0-8.562-1.388-11.927-4.165-3.317-2.825-5.537-6.965-6.659-12.42h-4.536v-5.042l3.95-.293a6.733 6.733 0 0 1-.072-.95v-1.9c0-.34.024-.657.073-.95h-3.951v-4.968l4.536-.365c.586-2.728 1.464-5.139 2.634-7.233 1.171-2.144 2.586-3.946 4.244-5.407a17.621 17.621 0 0 1 5.707-3.288c2.098-.78 4.366-1.17 6.805-1.17 2.195 0 4.342.488 6.439 1.462 2.098.974 3.927 2.387 5.488 4.238l-6 5.772c-.927-.925-1.903-1.68-2.927-2.265-.975-.585-2.097-.877-3.366-.877-2.097 0-3.853.755-5.268 2.265-1.366 1.51-2.341 3.654-2.927 6.43h15.659v5.407H41.385v2.63c0 .341.024.682.073 1.023h13.317v5.48H42.19c.683 2.68 1.707 4.725 3.073 6.138 1.414 1.412 3.146 2.119 5.195 2.119 1.414 0 2.634-.341 3.658-1.023 1.073-.682 2.098-1.656 3.073-2.923l5.927 5.553c-1.756 2.192-3.756 3.873-6 5.042-2.244 1.12-4.683 1.68-7.317 1.68z" fill="#F9FDFF"/></svg>
